X:1
T:Title
%%score ( 1 2 ) { 3 | 4 }
L:1/8
Q:1/4=100
M:4/4
K:G
V:1 treble nm="Grand Piano, Soprano"
V:2 treble 
V:3 treble nm="Choir Pad, The Coming of the Lord"
V:4 bass 
V:1
 [GB]2 [GB]>[GB] [GB]3 [DA] | [DG][DF][DE][DF] [DG]2 [FA]2 | [GB]2 [Fc]>[Fc] [Gd]3 [GB] | %3
w: By~James~Ramsey~Murray,~1894 * * * *|||
 [Ge][Gd][Fc][GB] [FA]4 | [GB]2 [GB]>[GB] [GB]3 [DA] | [DG][DF][DE][DF] [DG]2 [FA]2 | %6
w: |||
 [GB]2 [=Fd]>[Fd] E[Ec][DB][EA] | [DG]2 [DF]2 [DG]4 | [Gd]2 [Gd]>[GB] [Gd]4 | %9
w: |||
 [Ge]2 [Ge]>[Ec] [Ge]4 | [DG]2 [DG]>[DG] [GB] [FA]2 [EG] | [FA]>[FA] [EA][EB] [FA]4 | %12
w: |||
 [Gd]2 [Gd]>[GB] [Gd]4 | dB[Gc][Gd] [Ge]4 | [=FG]2 [FA][FB] [Ed] [Ec]2 [EA] | %15
w: |||
 [DB]>[Dc] [DB][CA] [B,G]4- | [B,G]4 z4 |] %17
w: ||
V:2
 x8 | x8 | x8 | x8 | x8 | x8 | x8 | x8 | x8 | x8 | x8 | x8 | x8 | G2 z2 z4 | x8 | x8 | x8 |] %17
V:3
 D2 D>D D3 D | CCCC B,2 D2 | D2 D>D D3 D | CDDD D4 | D2 D>D D3 D | CCCC B,2 D2 | %6
 D2 D>D CC[K:bass]G,C | B,2 A,2 B,4 | B,2 B,>G, B,4 | C2 C>G, C4 | B,2 B,>B, D D2 D | D>D ^CC D4 | %12
 B,2 B,>G, B,4 | B,[K:treble]DCB, C4 | G,2[K:bass] G,G, G, G,2 C | G,>G, G,F, G,4- | G,4 z4 |] %17
V:4
 G,2 G,>G, G,3 B,, | D,D,D,D, G,2 D,2 | G,2 A,>A, B,3 G, | z B,A,G, D,4 | G,2 G,>G, G,3 B,, | %5
 D,D,D,D, G,2 D,2 | G,2 B,,>B,, C,A,,B,,C, | D,2 D,2 G,4 | G,2 G,2 G,4 | C,2 C,>C, C,4 | %10
 G,2 G,>G, D, D,2 D, | D,>D, A,,A,, D,4 | G,2 G,2 G,4 | G,=F,E,D, C,4 | B,,2 B,,B,, C, C,2 C, | %15
 D,>D, D,D, z4 | z8 |] %17

